X: 15445
T: Glen Of Aherlow, The
R: reel
M: 4/4
K: Edorian
|:B2AF BFAF|E3F EDBA|B2AF BFAF|DFAF FE E2|
B2AF BFAF|E3F EDBA|BE E2 DEFA|dBAF FE E2:|
|:eB B2 egfe|fd d2 Adfd|eB B2 egfe|dBAF FE E2|
eB B2 egfe|f3e defd|B3d egfe|dBAF BE E2:|

